optimized/24/outline/upload.svg

<svg viewBox="0 0 24 24" xmlns="http://www.w3.org/2000/svg" fill="currentColor" data-slot="icon">
  <g clip-path="url(#clip0_2208_12318)">
    <path d="M12.2871 3.05691C12.1987 3.02024 12.1017 3 12 3C11.8983 3 11.8013 3.02024 11.7129 3.05691C11.6245 3.09351 11.5416 3.14776 11.4697 3.21967L7.46967 7.21967C7.17678 7.51256 7.17678 7.98744 7.46967 8.28033C7.76256 8.57322 8.23744 8.57322 8.53033 8.28033L11.25 5.56066V16.75C11.25 17.1642 11.5858 17.5 12 17.5C12.4142 17.5 12.75 17.1642 12.75 16.75V5.56066L15.4697 8.28033C15.7626 8.57322 16.2374 8.57322 16.5303 8.28033C16.8232 7.98744 16.8232 7.51256 16.5303 7.21967L12.5303 3.21967C12.4584 3.14776 12.3755 3.09351 12.2871 3.05691Z"/>
    <path d="M3.25 13.5C3.66421 13.5 4 13.8358 4 14.25V19.25C4 19.5815 4.1317 19.8995 4.36612 20.1339C4.60054 20.3683 4.91848 20.5 5.25 20.5H18.75C19.0815 20.5 19.3995 20.3683 19.6339 20.1339C19.8683 19.8995 20 19.5815 20 19.25V14.25C20 13.8358 20.3358 13.5 20.75 13.5C21.1642 13.5 21.5 13.8358 21.5 14.25V19.25C21.5 19.9793 21.2103 20.6788 20.6945 21.1945C20.1788 21.7103 19.4793 22 18.75 22H5.25C4.52065 22 3.82118 21.7103 3.30546 21.1945C2.78973 20.6788 2.5 19.9793 2.5 19.25V14.25C2.5 13.8358 2.83579 13.5 3.25 13.5Z"/>
  </g>
  <defs>
    <clipPath id="clip0_2208_12318">
      <rect width="24" height="24"/>
    </clipPath>
  </defs>
</svg>

<svg xmlns="http://www.w3.org/2000/svg" viewBox="0 0 24 24" fill="currentColor" data-slot="icon">
  <g clip-path="url(#a)">
    <path d="M12.287 3.057a.748.748 0 0 0-.817.163l-4 4a.75.75 0 0 0 1.06 1.06l2.72-2.72v11.19a.75.75 0 0 0 1.5 0V5.56l2.72 2.72a.75.75 0 1 0 1.06-1.06l-4-4a.748.748 0 0 0-.243-.163Z"/>
    <path d="M3.25 13.5a.75.75 0 0 1 .75.75v5a1.25 1.25 0 0 0 1.25 1.25h13.5A1.25 1.25 0 0 0 20 19.25v-5a.75.75 0 0 1 1.5 0v5A2.75 2.75 0 0 1 18.75 22H5.25a2.75 2.75 0 0 1-2.75-2.75v-5a.75.75 0 0 1 .75-.75Z"/>
  </g>
  <defs>
    <clipPath id="a">
      <rect width="24" height="24"/>
    </clipPath>
  </defs>
</svg>
